X:1
T:Resveillez vous tous
T:Thomas Crecquillon
T:Source : Publikation älterer praktischer und theoretischer Musik-Werke--- R.Eitner---Berlin---L.Liepmannssohn und M.Bahn---1874. Editor : André Vierendeels (17/11/17). Notes : Original clefs : G2, C2, C3, F3 Original note values have been halved Editorial accidentals above the staff      
T:Resveillez vous tous
T:©
T:©
T:©
T:©
C:Thomas Crecquillon
Z:©
%%score [ 1 2 3 4 ]
L:1/8
Q:1/4=120
M:2/2
K:F
V:1 treble nm="Soprano" snm="S"
V:2 treble nm="Alto" snm="A"
V:3 treble-8 nm="Tenor" snm="T"
V:4 bass nm="Bass" snm="B"
V:1
 F2 FG A2 A2 | d3 c B2 A2 | B2 c3 F f2- | fe c4 c2 | B2 A4 G2- | G2 F2 G2 B2- | BA/G/ A2 B4- | B8 | %8
w: Res- veil- lez vous, tous-|a- * * *|* mou- * *|* * reulx, res-|veil- lez vous,|_ tous a- *|* * * mou- reulx,|_|
 z8 | f2 ff e3 d | c2 B2 A4 | G8 | z8 | z4 f2 ff | e3 d c2 B2 | A2 G3 F F2- | F2 E2 F4 | z8 | %18
w: |ne pre- nez rien à|des- plai- san-|ce,||ne pre- nez|rien _ _ à|des- plai- * san-|* * ce,||
 z4 z2 f2 | f3 e d2 c2 | B2 A2 G2 F2 | GABc defe | dc c4 B2 | c2 z c c2 c2 | d4 c2 B2- | B2 A2 G4 | %26
w: tous-|jours de- vez es-|tre jo- yeulx, joy-|||eulx, puis- que vous|a- vez jou-|* is- san-|
 F4 z2 F2 | G2 A2 B3 A | G2 F2 E3 D | EF G3 F F2- | F2 E2 FFFG | A2 A2 d3 c | B2 A2 B2 GA | %33
w: ce, de|vos de- sirs _|_ sa- la- *||* ci- eulx, res- veil- lez|vous, tous a- *||
 Bcde f>edc/B/ | c d2 c B2 A2- | AG G4 F2 | G2 B4 A2 | G2 F2 F2 E2 | F4 F2 FG | A2 A2 d2 d2 | c8 |] %41
w: ||* * * mou-|reulx, tous a-|* * * mou-|reulx, res- veil- lez|vous tous a- mou-|reulx.|
V:2
 z8 | B,2 B,C D2 D2 | G2 E2 F2 A2- | AG F2 E4 | z2 F4 D2- | D2 D2 D2 E2 | F3 E D4 | G2 GG F4- | %8
w: |Res- veil- lez vous, tous|a- * * *|* * mou- reulx,|res- veil-|* lez vous, tous|a- mou- reulx,|ne pre- nez rien|
 F2 E2 D2 C2- | C2 B,2 C2 G2 | G3 F E2 F2 | D4 C2 z2 | F2 FF E2 D2 | C2 B,2 A,2 A2- | AG E2 FCDE | %15
w: _ à des- plai-|* san- ce, à|des- plai- san- *|* ce,|ne pre- nez rien à|des- plai- san- *||
 F2 E2 D4 | C4 A,2 A2 | A3 G F2 E2 | D2 C2 D4 | z2 A2 A3 G | F3 E D2 D2 | B,2 B4 A2 | G2 F2 G4 | %23
w: |* ce, tous-|jours de- vez es-|tre joy- eulx,|tous- jours de-|vez es- tre joy-|eulx, es- *|stre joy- eulx,|
 E2 A2 A2 A2 | A6 G2 | F2 F2 D4 | D4 z2 D2 | E2 F2 F3 F |"^b" E2 D2 C4- | C2 D2 B,4 | C4 C4 | %31
w: puis- que vous a-|vez jou-|is- san- *|ce, de|vos de- dirs sa-|la- * *||ci- eulx,|
 z4 B,2 B,C | D2 D2 G2 EF | GEFG A2 F2 | E4 z2 F2 | F2 D4 D2 |"^b" D2 E2 F4 | D2 B,2 C4 | %38
w: res- veil- lez|vous, tous a- * *|* * * * * mou-|reulx, res-|veil- lez vous|tous a- *|* mou- reulx,|
"^b" D2 DE F2 D2- | D2 C2 B,4 | A,8 |] %41
w: res- veil- lez vous, tous|_ a- mou-|reulx.|
V:3
 z8 | z8 | z8 | F2 FG A2 A2 | d2 d3 c B2 | A4 B4 | c4 B4 |"^b""^b""^b" e2 ee d4 | c3 B A2 G2- | %9
w: |||Res- veil- lez vous, tous|a- mou- * *||* reulx,|ne pre- nez rien,|rien à des plai-|
 G2 F2 G2 c2 | e2 d4 c2- |"^-natural" c2 B2 ceee | d3 c B2 A2 | G2 F2 d2 dd | c4 A2 B2 | %15
w: * san- ce, à|des plai- san-|* * ce, ne pre- nez|rien à des plai-|san- ce, ne pre- nez|rien à des-|
 c3 B A2 B2 | G4 F4- | F4 z4 | z8 | z2 f2 f3 e | d2 c2 B2 A2 | G3 A Bc d2 | B2 c2 d4 | %23
w: plai- * * san-|* ce,|_||tous- jours de-|vez es- tre joy-|eulx _ _ _ _|es- tre joy-|
 c2 z e e2 e2 | f4 e2 d2- | d2 c2 B4 | A4 z2 A2 | B2 c2 d3 c | B2 A2 G3 F | GA B3 AGF | G4 FAAB | %31
w: eulx, puis- que vous|a- vez jou|_ is- san-|ce, de|vos de- sirs sa-|la- * * *||ci- eulx, res- veil- lez|
 cF f3 d g2- | g2 f2 g4 | z4 F2 FG | A2 A2 d2 d2- | dc B2 A4 | B3 c d2 c2 | BAGF G4 | B4 F4- | %39
w: vous, tous a- * *|* mou- reulx,|res- veil- lez|vous, tous a- mou-|* * * reulx,|tous _ _ a-||mou- reulx.|
 F8- | F8 |] %41
w: _||
V:4
 z8 | z8 | z8 | z8 | z4 B,,2 B,,C, | D,2 D,2 G,2 G,2 | F,4 B,,4 | z4 B,2 B,B, | A,3 G, F,2 E,2 | %9
w: ||||Res- veil- lez|vous, tous a- mou-|reulx, _|ne pre- nez|rien _ _ à|
 D,4 C,4- | C,2 G,2 A,2 F,2 | G,4 C,CCC | B,3 A, G,2 F,2 | E,2 D,3 E,F,G, | A,2 A,2 A,A, G,2 | %15
w: des- plai-||san- ce, ne pre- ne|rien à des- plai-|san- ce, ne pre- nez|rien, ne pre- nez rien|
 F,2 C,2 D,2 B,,2 | C,4 z2 C2 | C3 B, A,2 G,2 | F,2 E,2 D,4- | D,4 z2 A,2 | B,2 F,2 G,2 D,2 | %21
w: à des plai- san-|ce, tous-|jours de- vez es-|tre joy- eulx,|_ tous-|jours de- vez es-|
 E,2 G,4 F,2 | G,2 A,2 G,4 | z2 A,2 A,2 A,2 | D,E,F,G, A,2 B,2 | F,2 F,2 G,4 | D,4 z2 D,2 | %27
w: tre joy- *|* * eulx,|puis- que vous|a- * * * * vez|jou- is- san-|ce, de|
 G,2 F,2 B,,2 D,2 |"^b" E,2 F,2 C,4- | C,2 B,,2 D,2 D,2 | C,4 F,4- | F,4 z4 | z8 | z8 | z8 | %35
w: vos de- sirs sa-|la- * ci-|* eulx sa- la-|ci- eulx,|_||||
 B,,2 B,,C, D,2 D,2 | G,2 G,2 F,4 | B,,2 D,2 C,4 | B,,2 B,,C, D,2 B,,2 | F,2 F,2 B,,C,D,E, | F,8 |] %41
w: res- veil- lez vous, tous|a- mou- *|* * reulx,|res- veil- lez vous, tous|a- mou- teulx. _ _ _|_|

